app/dist/common/images/medios-ag.svg

<svg height="18" viewBox="0 0 18 18" width="18" xmlns="http://www.w3.org/2000/svg"><path d="m0 0h18v18h-18z" fill="#e83352"/><path d="m8 6h-5v1h5zm3 2.4.91 3.6h1.13l.96-3.6v3.6h1v-5h-1.58l-.9 3.55h-.02l-.92-3.55h-1.58v5h1zm-8 1.6h5v1h-5zm5 1.5h-5v.5h5z" fill="#fff"/></svg>

<!-- by TradingView --><svg width="18" height="18" viewBox="0 0 18 18" xmlns="http://www.w3.org/2000/svg"><path fill="#E83352" d="M0 0h18v18H0z"/><path d="M8 6H3v1h5V6Zm3 2.4.91 3.6h1.13L14 8.4V12h1V7h-1.58l-.9 3.55h-.02L11.58 7H10v5h1V8.4ZM3 10h5v1H3v-1Zm5 1.5H3v.5h5v-.5Z" fill="#fff"/></svg>
